!!!OTL: Christo nato Domino
**kern
*staff1
=1-
*clefF3
*k[b-]
*met(c|)
*M2/2
2F\
2F\
2F\
2G\
=2
2c\
2G\
1C
=3
2C/
2G\
2F\
2BB-/
=4
1F
1F
!!linebreak:original
=5
2F\
2F\
2F\
2G\
=6
2c\
2G\
1C
=7
2C/
2G\
2F\
2BB-/
=8
1F
1F
=9
!!linebreak:original
2F\
2BB-/
2F\
2G\
=10
2D/
2F\
2C/
2D/
=11
2D/
2B-\
1G
=12
2D/
2D/
2F\
2G\
=13
2D/
2D/
2C/
2C/
=14
2.D/
4E/
0F
=15
!!linebreak:original
*M3/1
0F
1F
=16
0F
1G
=17
0c
1G
=18
0.C
=19
0C
1G
=20
0F
1BB-
=21
0.F
=22
0.F
=23
!!linebreak:original
0F
1F
=24
0F
1G
=25
0c
1G
=26
0.C
=27
0C
1G
=28
0F
1BB-
=29
0.F
=30
0.F
=31
!!pagebreak:original
0F
1BB-
=32
0F
1G
=33
0D
1F
=34
0D
1D
=35
0.C
=36
0.D
=37
1G
0F
=38
!!linebreak:original
0F
1C
=39
0F
1G
=40
0D
1D
=41
0C
1C
=42
1.D
2E/
1F
=43
0.F
==
*-
!!title: @{OTL}, @{GTL}, ed. @{ENC}
!!!pag:
!!!GTL: Hymnbook D
!!!EFL: 
!!!YEM: Creative Commons CC/BY/NC/SA 4.0
!!!ENC: Marcin Konik
!!!END: 2015-0m-dd
!!!EED: Marcin Konik
!!!EEV: 
!!!ONB: Encoded in vim by Marcin Konik
!!!CharacterEncoding: utf-8
!!!RDF**kern: l=long note in original notation
!!!RDF**kern: i=editorial accidental
!!muse2ps: z14jc180F
!!!COM: Anonim
!!!CDT: [?]
!!!TXO: Polish
!!!ODT: 
!!!GTL: Hymnbook D
!!!ARL: Opactwo św. Wojciecha, Staniątki 
!!!voices:	1
